X:139
T:Bunch O' Roses
M:C|
L:1/4
Q:1/4=100
K:D
D|\
DD   DD|FG A2|DD2 A,|CE DA,|D D3|
A,B, CD|EE A2|DD2 A,|CE DA,|D D3|
A3    G|FF GE|DD2 A,|CE DA,|D D3|
A3    G|FF GE|DD2 A,|CE DA,|D D2||
